X: 135
T:Temperance Reel
T:Teetotaller's Reel
R:Reel
M:C|
L:1/8
Q:1/2=112
K:G
D|G2GF GABc|d2ge dBAc|BEED EFGA|BGAF GFED|
~G3F GABc|dBge dBAc|BEED EFGA|BGAF G3:|
A|Beed e3g|fgaf gfed|Bdd^c d3e|fgaf gfed|
Beed ~e3g|fgaf gfed|BEED EFGA|BGAF G3:|
